X: 21814
T: GO TO BERWICK, JOHNNY
O: Scotch air
Q: "With spirit."
%R: triple hornpipe
B: W. Hamilton "Universal Tune-Book" Vol. 2 Glasgow 1846 p.181 #4
S: http://s3-eu-west-1.amazonaws.com/itma.dl.printmaterial/book_pdfs/hamiltonvol2web.pdf
Z: 2016 John Chambers <jc:trillian.mit.edu>
M: 3/2
L: 1/8
K: F
% - - - - - - - - - - - - - - - - - - - - - - - - -
|:\
c2F2 F2c2 dcBA | c2F2 F2c2 A2f2 |\
c2F2 F2c2 dcBA | B2G2 G2A2 B2d2 :| \
|:\
~f3g f2F2 ABcA | ~f3g f2c2 f2a2 |\
f3g f2F2 ABcA | g3a g2G2 B2d2 |
f3g f2F2 ABcA | f3g f2c2 f2a2 |\
f2ga bagf agfe | d2g2 g2G2 B2d2 :| \
|:\
c4 dcBA dcBA | c4 dcBA c2f2 |\
c4 dcBA dcBA | d2G2 G2A2 B2d2 :|
% - - - - - - - - - - - - - - - - - - - - - - - - -

%%sep 1 1 500
%%sep 1 1 500

